X: 38051
T: Mr. Robert Mackay of Edinburgh Reel
C: Muriel Johnstone
R: reel (originally strathspey)
B: RSCDS 38-5
Z: 1997 by John Chambers <jc:trillian.mit.edu>
M: C
L: 1/8
%--------------------
K: F
AB \
| "F"c2Ac "Bb"DFBD | "F"CFAF "C7"CEGE \
| "Dm"{E}F2 "C"EF "Bb"DF"F/a"CF | "Gm"DGGA "C7"B2{cB}AB |
y4 \
| "F"c2Ac "Bb"DFBD | "F"CFAF "C7"CEGB, \
| "F"A,F"Bb"B,F "F"CF"Bb"DF | "C7"E{F}GGE "F"F2 :|
|: AG \
| "F"FAcf "C"efge | "F"dccA "C7"GFGA \
| "F"A,FFC "Bb"DCFC | "Gm"DGGA "C7"B2{cB}AG |
y4 \
| "F"FAcf "C"efge | "F"dccA "C7"GFGA \
| "F"A,F"Gm"B,F "F"CF"Bb"DF | "C7"E{F}GGE "F"F2 :|
%%center Book38/38051-Mr_Robert_Mackay_of_Edinburgh_Reel-1.abc

%%sep 1 1 500
%%sep 1 1 500

